src/parts/tops/LongHairCurly.svg

<svg>
  <g
    id="Top"
    strokeWidth="1"
    fillRule="evenodd"
  >
    <defs>
      <rect
        id="LongHairCurly-path1"
        x="0"
        y="0"
        width="264"
        height="280"
      />
      <path
        id="LongHairCurly-path2"
        d="M48.7246602,89.2187346 C44.7420117,91.1711421 42,95.2653555 42,100 L42,113 C42,119.018625 46.4308707,124.002364 52.2085808,124.867187 C53.9518066,145.114792 66.4692178,162.282984 84,170.610951 L84,189 L80,189 L80,189 C78.4137385,189 76.8394581,189.051297 75.2787271,189.152323 C70.3620966,186.639548 65.7724391,183.578174 61.590479,180.048925 C57.2814481,181.318646 52.7202934,182 48,182 C21.490332,182 0,160.509668 0,134 C0,119.590902 6.34904132,106.664702 16.4021743,97.866349 C11.1175746,90.6060809 8,81.6671147 8,72 C8,50.160623 23.9112243,32.0375116 44.7738169,28.5905219 C51.0188047,11.8901624 67.1208542,0 86,0 C94.0143172,0 101.528186,2.14267429 108,5.88641659 C114.471814,2.14267429 121.985683,0 130,0 C148.879146,0 164.981195,11.8901624 171.226183,28.5905219 C192.088776,32.0375116 208,50.160623 208,72 C208,81.6671147 204.882425,90.6060809 199.597826,97.866349 C209.650959,106.664702 216,119.590902 216,134 C216,160.509668 194.509668,182 168,182 C163.279707,182 158.718552,181.318646 154.409521,180.048925 C150.227561,183.578174 145.637903,186.639548 140.721273,189.152323 C139.160542,189.051297 137.586262,189 136,189 L136,189 L132,189 L132,170.610951 C149.530782,162.282984 162.048193,145.114792 163.791419,124.867187 C169.569129,124.002364 174,119.018625 174,113 L174,100 C174,95.778427 171.820067,92.0660046 168.524466,89.9269981 C167.450514,89.5343912 166.370126,89.0424011 165.289302,88.4564081 C164.868503,88.3367332 164.43828,88.2394463 164,88.1659169 L164,87.7130302 C155.319369,82.4100235 146.764694,71.1747746 141.449951,56.7992877 C131.312295,58.8351061 119.547256,60 107,60 C95.038684,60 83.7882341,58.9413637 73.9808476,57.0787685 C68.7546917,71.0641476 60.4637821,82.0431875 52,87.4230168 L52,88.1659169 C50.9777341,88.3374206 49.9992949,88.6381729 49.0820602,89.050796 C48.9628927,89.1079465 48.8437566,89.1639284 48.7246602,89.2187346 Z"
      />
    </defs>
    <mask
      id="LongHairCurly-mask1"
      fill="white"
    >
      <use href="#LongHairCurly-path1" />
    </mask>
    <g id="Mask" />
    <g
      id="Top/Long-Hair/Curly"
      mask="url('#LongHairCurly-mask1')"
    >
      <g transform="translate(-1.000000, 0.000000)">
        <path
          id="Shadow"
          d="M105.984735,27.7643628 C114.013215,26.6267967 122.796163,26 132,26 C142.358003,26 152.182939,26.7938545 160.999342,28.2161842 C183.451688,38.7497687 199,61.559133 199,88 L199,105.044138 C187.461887,104.672508 173.831239,90.7644306 166.449951,70.7992877 C156.312295,72.8351061 144.547256,74 132,74 C120.038684,74 108.788234,72.9413637 98.9808476,71.0787685 C91.6758772,90.6271291 78.3831001,104.301811 67,105.021902 L67,88 L67,88 C67,61.1745453 83.0039076,38.0870034 105.984735,27.7643628 Z"
          opacity="0.16"
          fill="#000000"
          fillRule="evenodd"
        />
        <g
          id="Hair"
          strokeWidth="1"
          fill="none"
          fillRule="evenodd"
          transform="translate(25.000000, 10.000000)"
        >
          <mask
            id="LongHairCurly-mask2"
            fill="white"
          >
            <use href="#LongHairCurly-path2" />
          </mask>
          <use
            class="CustomColor"
            fill="var(--avataaar-hair-color)"
            href="#LongHairCurly-path2"
          />
        </g>
      </g>
    </g>
  </g>
</svg>

<svg>
  <g id="Top">
    <defs>
      <path id="LongHairCurly-path1" d="M0 0h264v280H0z"/>
      <path id="LongHairCurly-path2" d="M48.725 89.219A12 12 0 0 0 42 100v13c0 6.019 4.43 11.002 10.209 11.867 1.743 20.248 14.26 37.416 31.791 45.744V189h-4c-1.586 0-3.16.051-4.721.152a72.113 72.113 0 0 1-13.689-9.103A48.013 48.013 0 0 1 48 182c-26.51 0-48-21.49-48-48 0-14.41 6.349-27.335 16.402-36.134A43.802 43.802 0 0 1 8 72c0-21.84 15.911-39.962 36.774-43.41C51.019 11.89 67.12 0 86 0a43.798 43.798 0 0 1 22 5.886A43.798 43.798 0 0 1 130 0c18.88 0 34.981 11.89 41.226 28.59C192.09 32.039 208 50.16 208 72a43.802 43.802 0 0 1-8.402 25.866C209.65 106.665 216 119.591 216 134c0 26.51-21.49 48-48 48-4.72 0-9.281-.681-13.59-1.951a72.113 72.113 0 0 1-13.689 9.103A73.084 73.084 0 0 0 136 189h-4v-18.389c17.53-8.328 30.048-25.496 31.791-45.744C169.57 124.002 174 119.02 174 113v-13a11.99 11.99 0 0 0-5.476-10.073 24.329 24.329 0 0 1-3.235-1.47c-.42-.12-.85-.218-1.289-.291v-.453c-8.68-5.303-17.235-16.538-22.55-30.914C131.312 58.835 119.547 60 107 60c-11.961 0-23.212-1.059-33.02-2.921C68.756 71.064 60.465 82.043 52 87.423v.743a11.912 11.912 0 0 0-3.275 1.053Z"/>
    </defs>
    <mask id="LongHairCurly-mask1" fill="#fff">
      <use href="#LongHairCurly-path1"/>
    </mask>
    <g id="Top/Long-Hair/Curly" mask="url('#LongHairCurly-mask1')">
      <g transform="translate(-1)">
        <path id="Shadow" fill="#000" d="M105.985 27.764C114.013 26.627 122.796 26 132 26c10.358 0 20.183.794 29 2.216C183.451 38.75 199 61.56 199 88v17.044c-11.538-.371-25.169-14.28-32.55-34.245C156.312 72.835 144.547 74 132 74c-11.961 0-23.212-1.059-33.02-2.921-7.304 19.548-20.597 33.223-31.98 33.943V88c0-26.825 16.004-49.913 38.985-60.236Z" opacity=".16"/>
        <g id="Hair" fill="none" transform="translate(25 10)">
          <mask id="LongHairCurly-mask2" fill="#fff">
            <use href="#LongHairCurly-path2"/>
          </mask>
          <use fill="var(--avataaar-hair-color)" class="CustomColor" href="#LongHairCurly-path2"/>
        </g>
      </g>
    </g>
  </g>
</svg>
